src/assets/img/icons/lineal/download.svg

<svg xmlns="http://www.w3.org/2000/svg" viewBox="0 0 403.98 409.6"><path class="lineal-fill" d="M202 300.86l66.08-102.75h-38.86V13h-54.45v185.11h-38.86z"/><path class="lineal-stroke" d="M202 313.88a13 13 0 01-11-6l-66-102.72a13 13 0 0111-20.07h25.83V13a13 13 0 0113-13h54.45a13 13 0 0113 13v172.09h25.83A13 13 0 01279 205.16L213 307.9a13 13 0 01-11 6zm-42.23-102.74L202 276.78l42.22-65.64h-15a13 13 0 01-13-13V26.05h-28.43v172.06a13 13 0 01-13 13z"/><path class="lineal-stroke" d="M391 409.6H13a13 13 0 01-13-13V93.75a13 13 0 0113-13h65.91a13 13 0 110 26H26.05v276.8h351.89V106.77h-52.87a13 13 0 110-26H391a13 13 0 0113 13v302.8a13 13 0 01-13 13z"/></svg>

<svg xmlns="http://www.w3.org/2000/svg" viewBox="0 0 403.98 409.6"><path class="lineal-fill" d="M202,300.86l66.08-102.75H229.22V13H174.77V198.11H135.91Z"/><path class="lineal-stroke" d="M202,313.88a13,13,0,0,1-11-6L125,205.16a13,13,0,0,1,11-20.07h25.83V13a13,13,0,0,1,13-13h54.45a13,13,0,0,1,13,13V185.09h25.83A13,13,0,0,1,279,205.16L213,307.9a13,13,0,0,1-11,6ZM159.77,211.14,202,276.78l42.22-65.64h-15a13,13,0,0,1-13-13V26.05H187.79V198.11a13,13,0,0,1-13,13Z"/><path class="lineal-stroke" d="M391,409.6H13a13,13,0,0,1-13-13V93.75a13,13,0,0,1,13-13H78.91a13,13,0,1,1,0,26H26.05V383.55H377.94V106.77H325.07a13,13,0,1,1,0-26H391a13,13,0,0,1,13,13V396.57a13,13,0,0,1-13,13Z"/></svg>
